X:94
T:Hornpipe
S:John Moore's Book 2
Z:Transcribed by Steve Mansfield 05/2021
%%VWML: Moore2-4494-p73-0
F:http://www.vwml.org/record/Moore2/4494/p73
M:C
L:1/8
K:G
dB | Bcde dcBc | d2g2g2 dc | Bcde dBGB | (3ABA (3GFE D2 dc | 
Bcde dBGB | e^def g2fe | dgec BdcA | G2G2G2 :|
|: AG | FAFA FAFA | c2A2A2 AG | FAFA FAFA | e2d2d2 ef | 
g2 dB GBGB | e2cA FAFA | g2dB ecAF | G2G2G2 :|

